svg/emoji/puzzled_line.svg

<?xml version="1.0" encoding="UTF-8"?>
<svg width="24px" height="24px" viewBox="0 0 24 24" version="1.1" xmlns="http://www.w3.org/2000/svg" xmlns:xlink="http://www.w3.org/1999/xlink">
    <title>puzzled_line</title>
    <g id="Icon" stroke="none" stroke-width="1" fill="none" fill-rule="evenodd">
        <g id="Emoji" transform="translate(-528.000000, 0.000000)">
            <g id="puzzled_line" transform="translate(528.000000, 0.000000)">
                <path d="M24,0 L24,24 L0,24 L0,0 L24,0 Z M12.5935,23.2578 L12.5819,23.2595 L12.5109,23.295 L12.4919,23.2987 L12.4767,23.295 L12.4057,23.2595 C12.3958,23.2564 12.387,23.259 12.3821,23.2649 L12.378,23.2758 L12.3609,23.7031 L12.3659,23.7235 L12.3769,23.7357 L12.4805,23.8097 L12.4953,23.8136 L12.5071,23.8097 L12.6107,23.7357 L12.6233,23.7197 L12.6267,23.7031 L12.6096,23.2758 C12.6076,23.2657 12.601,23.2593 12.5935,23.2578 Z M12.8584,23.1453 L12.8445,23.1473 L12.6598,23.2397 L12.6499,23.2499 L12.6472,23.2611 L12.6651,23.6906 L12.6699,23.7034 L12.6784,23.7105 L12.8793,23.8032 C12.8914,23.8069 12.9022,23.803 12.9078,23.7952 L12.9118,23.7812 L12.8777,23.1665 C12.8753,23.1546 12.8674,23.147 12.8584,23.1453 Z M12.143,23.1473 C12.1332,23.1424 12.1222,23.1453 12.1156,23.1526 L12.1099,23.1665 L12.0758,23.7812 C12.0751,23.7927 12.0828,23.8019 12.0926,23.8046 L12.1083,23.8032 L12.3092,23.7105 L12.3186,23.7024 L12.3225,23.6906 L12.3404,23.2611 L12.3372,23.2485 L12.3278,23.2397 L12.143,23.1473 Z" id="MingCute" fill-rule="nonzero"></path>
                <path d="M12,2 C12.7623,2 13.5059,2.08549 14.2213,2.24781 C14.7599,2.37002 15.0974,2.90571 14.9752,3.4443 C14.853,3.9829 14.3173,4.32044 13.7787,4.19823 C13.2076,4.06863 12.6124,4 12,4 C7.58172,4 4,7.58172 4,12 C4,16.4183 7.58172,20 12,20 C15.806,20 18.9934,17.3412 19.8018,13.7787 C19.924,13.2401 20.4597,12.9026 20.9983,13.0248 C21.5369,13.147 21.8744,13.6827 21.7522,14.2213 C20.7416,18.6747 16.7603,22 12,22 C6.47715,22 2,17.5228 2,12 C2,6.47715 6.47715,2 12,2 Z M15.9488,13.1838 C16.1234,13.7077 15.8403,14.2741 15.3163,14.4487 C14.9073,14.5851 14.4633,14.7754 14.0027,15.0057 C13.7599,15.1271667 13.5220778,15.2548111 13.2937963,15.3844852 L12.9591,15.58 C12.7652,15.6963 12.6257,15.7851 12.5549,15.8323 C12.0954,16.1387 11.4745,16.0146 11.1681,15.5551 C10.8617,15.0957 10.9858,14.4748 11.4453,14.1684 L11.8031912,13.9418016 L11.9299,13.8651 C12.2977,13.6443 12.6947,13.4237 13.1081,13.217 C13.6476,12.9471 14.1761,12.7206 14.6839,12.5513 C15.2078,12.3767 15.7741,12.6599 15.9488,13.1838 Z M9.5,9 C10.3284,9 11,9.67157 11,10.5 C11,11.3284 10.3284,12 9.5,12 C8.67157,12 8,11.3284 8,10.5 C8,9.67157 8.67157,9 9.5,9 Z M14.5,7 C15.3284,7 16,7.67157 16,8.5 C16,9.32843 15.3284,10 14.5,10 C13.6716,10 13,9.32843 13,8.5 C13,7.67157 13.6716,7 14.5,7 Z M19.5,8 C20.0523,8 20.5,8.44772 20.5,9 C20.5,9.55228 20.0523,10 19.5,10 C18.9477,10 18.5,9.55228 18.5,9 C18.5,8.44772 18.9477,8 19.5,8 Z M19.5,2 C20.8807,2 22,3.11929 22,4.5 C22,5.29761 21.6254,6.00828 21.0464,6.46441 L20.4778481,6.93368877 C20.1509309,7.19556049 19.8122778,7.42188 19.5,7.42188 C18.875,7.42188 18.6406,6.93238 18.6406,6.57812 C18.6406,6.22387 18.851,5.84397 19.0252,5.62967 C19.2792,5.31724 19.5896,5.06607 19.8087,4.89342 C19.927,4.80021 20,4.65892 20,4.5 C20,4.22386 19.7761,4 19.5,4 C19.2239,4 19,4.22386 19,4.5 C19,5.05228 18.5523,5.5 18,5.5 C17.4477,5.5 17,5.05228 17,4.5 C17,3.11929 18.1193,2 19.5,2 Z" id="形状" fill="#09244B"></path>
            </g>
        </g>
    </g>
</svg>

<svg xmlns="http://www.w3.org/2000/svg" width="24" height="24"><g fill="none" fill-rule="evenodd"><path d="M24 0v24H0V0h24ZM12.594 23.258l-.012.002-.071.035-.02.004-.014-.004-.071-.036c-.01-.003-.019 0-.024.006l-.004.01-.017.428.005.02.01.013.104.074.015.004.012-.004.104-.074.012-.016.004-.017-.017-.427c-.002-.01-.009-.017-.016-.018Zm.264-.113-.014.002-.184.093-.01.01-.003.011.018.43.005.012.008.008.201.092c.012.004.023 0 .029-.008l.004-.014-.034-.614c-.003-.012-.01-.02-.02-.022Zm-.715.002a.023.023 0 0 0-.027.006l-.006.014-.034.614c0 .012.007.02.017.024l.015-.002.201-.093.01-.008.003-.011.018-.43-.003-.012-.01-.01-.184-.092Z"/><path fill="#09244B" d="M12 2c.762 0 1.506.085 2.221.248a1 1 0 1 1-.442 1.95 8 8 0 1 0 6.023 9.58 1 1 0 1 1 1.95.443C20.742 18.675 16.76 22 12 22 6.477 22 2 17.523 2 12S6.477 2 12 2Zm3.949 11.184a1 1 0 0 1-.633 1.265c-.409.136-.853.326-1.313.557-.243.121-.48.249-.71.378l-.334.196c-.194.116-.333.205-.404.252a1 1 0 0 1-1.11-1.664l.358-.226.127-.077c.368-.22.765-.441 1.178-.648.54-.27 1.068-.496 1.576-.666a1 1 0 0 1 1.265.633ZM9.5 9a1.5 1.5 0 1 1 0 3 1.5 1.5 0 0 1 0-3Zm5-2a1.5 1.5 0 1 1 0 3 1.5 1.5 0 0 1 0-3Zm5 1a1 1 0 1 1 0 2 1 1 0 0 1 0-2Zm0-6a2.5 2.5 0 0 1 1.546 4.464l-.568.47c-.327.262-.666.488-.978.488-.625 0-.86-.49-.86-.844s.211-.734.385-.948c.254-.313.565-.564.784-.737A.5.5 0 1 0 19 4.5a1 1 0 1 1-2 0A2.5 2.5 0 0 1 19.5 2Z"/></g></svg>
